X: 27039
T: Miss Gunning's Rant
R: reel
M: 4/4
K: Amajor
c3A BEED|CEAc BEEc|dBBA Bcdg|aefd ceae|
c2Ac BEED|CEAc BEEc|dBBA Bcdg|aefd cAAB|
Aaag ~a3e|dcBA GABc|Aaag aece|dcBA E/E/EA2|
Aaag ~a3e|dcBA GAfg|aece fdBc|dBcA E/E/EA2|
|:aec'e aec'e|bed'e bed'e|c'ee'a c'ee'a|dcBA EAA/A/A:|
cefe cefe|f/g/aec BEEB|cefe cefe|afed cAAB|
cefe cefe|f/g/aec BEEB|c/B/AeA fAgA|aefd cAAB|

